tools/download-figma-icons/icons/outlined-medium/townhall.svg

<svg width="24" height="24" viewBox="0 0 24 24" fill="none" xmlns="http://www.w3.org/2000/svg">
<path fill-rule="evenodd" clip-rule="evenodd" d="M4 4C4 3.44772 4.44772 3 5 3H19C19.5523 3 20 3.44772 20 4V6H21H22C22.5523 6 23 6.44772 23 7C23 7.55228 22.5523 8 22 8V20C22.5523 20 23 20.4477 23 21C23 21.5523 22.5523 22 22 22H21H16H12H8H3H2C1.44772 22 1 21.5523 1 21C1 20.4477 1.44772 20 2 20V8C1.44772 8 1 7.55228 1 7C1 6.44772 1.44772 6 2 6H3H4V4ZM9 20V14C9 13.4477 8.55228 13 8 13C7.44772 13 7 13.4477 7 14V20H4V8H5H19H20V20H17V14C17 13.4477 16.5523 13 16 13C15.4477 13 15 13.4477 15 14V20H13V14C13 13.4477 12.5523 13 12 13C11.4477 13 11 13.4477 11 14V20H9ZM18 5V6H6V5H18Z" fill="black"/>
</svg>

<svg xmlns="http://www.w3.org/2000/svg" width="24" height="24" fill="none" viewBox="0 0 24 24"><path fill="currentColor" fill-rule="evenodd" d="M4 4a1 1 0 0 1 1-1h14a1 1 0 0 1 1 1v2h2a1 1 0 1 1 0 2v12a1 1 0 1 1 0 2H2a1 1 0 1 1 0-2V8a1 1 0 0 1 0-2h2zm5 16v-6a1 1 0 1 0-2 0v6H4V8h16v12h-3v-6a1 1 0 1 0-2 0v6h-2v-6a1 1 0 1 0-2 0v6zm9-15v1H6V5z" clip-rule="evenodd"/></svg>
